packages/foundations/assets/icons/functional/images/business & payment/credit_card_20_filled.svg

<svg xmlns="http://www.w3.org/2000/svg" width="20" height="20" fill="none"><g clip-path="url(#a)"><path fill="#1A1C1F" fill-rule="evenodd" d="M16 4c1.094 0 2 .906 2 2v8c0 1.094-.906 2-2 2H4c-1.094 0-2-.906-2-2V6c0-1.094.906-2 2-2zm-7 7H4v2h5zm7-5H4v2h12z" clip-rule="evenodd"/></g><defs><clipPath id="a"><path fill="#fff" d="M0 0h20v20H0z"/></clipPath></defs></svg>

<svg width="20" height="20" viewBox="0 0 20 20" fill="none" xmlns="http://www.w3.org/2000/svg">
<g clip-path="url(#clip0_2202_1341)">
<path fill-rule="evenodd" clip-rule="evenodd" d="M16 4C17.094 4 18 4.906 18 6V14C18 15.094 17.094 16 16 16H4C2.906 16 2 15.094 2 14V6C2 4.906 2.906 4 4 4H16ZM9 11H4V13H9V11ZM16 6H4V8H16V6Z" fill="#1A1C1F"/>
</g>
<defs>
<clipPath id="clip0_2202_1341">
<rect width="20" height="20" fill="white"/>
</clipPath>
</defs>
</svg>
